dhis-2/dhis-support/dhis-support-system/src/main/resources/SVGs/contraceptive_diaphragm_negative.svg

<svg width="48" height="48" viewBox="0 0 48 48" fill="none" xmlns="http://www.w3.org/2000/svg">
<path fill-rule="evenodd" clip-rule="evenodd" d="M0 0V47.9994H47.9994V0H0ZM23.9997 13.0468C32.0356 13.0468 38.6495 19.0918 39.5675 26.8807C40.8485 27.4537 41.5565 28.0866 41.5615 28.7336C41.9995 34.9216 33.6836 34.9526 23.9837 34.9526C14.2848 34.9526 5.99992 34.9216 6.43792 28.7336C6.44432 28.0866 7.14721 27.4527 8.43149 26.8787C9.35108 19.0908 15.9648 13.0468 23.9993 13.0468H23.9997ZM23.9997 13.5588C15.6188 13.5588 8.82389 20.3527 8.82389 28.7336C8.82619 28.8086 8.82879 28.8826 8.83189 28.9566C8.84099 29.3166 8.3312 29.2596 8.3241 28.9566C8.3197 28.8826 8.3158 28.8086 8.3124 28.7336C8.3124 28.2626 8.342 27.7987 8.3827 27.3377C7.46571 27.7787 6.96181 28.2526 6.95501 28.7336C6.95501 30.6926 14.5868 32.2806 24.0018 32.2806C33.4167 32.2806 41.0486 30.6926 41.0486 28.7336C41.0476 28.2486 40.5406 27.7717 39.6166 27.3277C39.6586 27.7917 39.6876 28.2586 39.6876 28.7336C39.6846 28.8086 39.6826 28.8826 39.6796 28.9566C39.6616 29.2456 39.2086 29.4056 39.1636 28.9566C39.1686 28.8826 39.1716 28.8086 39.1756 28.7336C39.1756 20.3527 32.3807 13.5588 23.9998 13.5588H23.9997Z" fill="#333333"/>
</svg>

<?xml version="1.0" encoding="UTF-8" standalone="no"?>
<!-- Created with Inkscape (http://www.inkscape.org/) -->
<svg id="svg8" xmlns:rdf="http://www.w3.org/1999/02/22-rdf-syntax-ns#" xmlns="http://www.w3.org/2000/svg" xmlns:osb="http://www.openswatchbook.org/uri/2009/osb" height="48" width="48" version="1.1" xmlns:cc="http://creativecommons.org/ns#" viewBox="0 0 12.7 12.7" xmlns:dc="http://purl.org/dc/elements/1.1/">
 <title id="title4753">UIO-icon</title>
 <metadata id="metadata5">
  <rdf:RDF>
   <cc:Work rdf:about="">
    <dc:format>image/svg+xml</dc:format>
    <dc:type rdf:resource="http://purl.org/dc/dcmitype/StillImage"/>
    <dc:title>UIO-icon</dc:title>
    <dc:creator>
     <cc:Agent>
      <dc:title>Joaquín Urbano</dc:title>
     </cc:Agent>
    </dc:creator>
    <dc:rights>
     <cc:Agent>
      <dc:title>GPL</dc:title>
     </cc:Agent>
    </dc:rights>
   </cc:Work>
  </rdf:RDF>
 </metadata>
 <g id="layer1" fill="#333" transform="translate(0,-284.3)">
  <path id="rect927" d="m0 0v48h48v-48h-48zm24 13.047c8.036 0 14.65 6.045 15.568 13.834 1.281 0.573 1.989 1.206 1.994 1.853 0.438 6.188-7.878 6.219-17.578 6.219-9.699 0-17.984-0.031-17.546-6.219 0.0064-0.647 0.7093-1.281 1.9936-1.855 0.9196-7.788 7.5334-13.832 15.568-13.832zm0 0.512c-8.381 0-15.176 6.794-15.176 15.175 0.0023 0.075 0.0049 0.149 0.008 0.223 0.0091 0.36-0.5007 0.303-0.5078 0-0.0044-0.074-0.0083-0.148-0.0117-0.223 0-0.471 0.0296-0.935 0.0703-1.396-0.917 0.441-1.4209 0.915-1.4277 1.396 0 1.959 7.6319 3.547 17.047 3.547 9.415 0 17.047-1.588 17.047-3.547-0.001-0.485-0.508-0.962-1.432-1.406 0.042 0.464 0.071 0.931 0.071 1.406-0.003 0.075-0.005 0.149-0.008 0.223-0.018 0.289-0.471 0.449-0.516 0 0.005-0.074 0.008-0.148 0.012-0.223 0-8.381-6.795-15.175-15.176-15.175z" fill-rule="evenodd" transform="matrix(.26458 0 0 .26458 0 284.3)"/>
 </g>
</svg>
